X:1
T:Tornado -- Reel
R:reel
C:J. HAND
B:Ryan's Mammoth Collection
N: 262
Z: Contributed by Ray Davies,  ray:davies99.freeserve.co.uk
M:2/4
L:1/16
K:A
u(ed)|\
cBAc BAGB | (ea)~a2 .f2(fg) | {b}agaf ecAc | BAGA BdcB |
cBAc BAFE | (ea)~a2 .f2(fg) | {b}agaf ecAc | {c}BAGB A2:|
|:{g}v.a2.A2 {g}.a2.A2 | {b}agaf ecBA | (BF)z.F F3A | GABc defg |
  {g}.a2.A2  {g}.a2.A2 | {b}agaf ecBA | (BF)z.F .F2(Ac) |\
  {c}BAGB A2:|
